markup/sourceimages/decore-line2.svg

<svg xmlns="http://www.w3.org/2000/svg" width="6093" height="41"><path fill-rule="evenodd" fill="#F1F7FC" d="M6059.065 40.991c-25.526 0-45.443-8.184-64.706-16.1-19.18-7.881-37.297-15.326-60.776-15.326-23.478 0-41.595 7.444-60.776 15.326-19.261 7.916-39.179 16.1-64.705 16.1-25.525 0-45.443-8.184-64.705-16.1-19.181-7.882-37.298-15.326-60.775-15.326-23.479 0-41.596 7.445-60.777 15.326-19.262 7.916-39.18 16.1-64.704 16.1-25.526 0-45.444-8.184-64.706-16.1-19.181-7.882-37.298-15.326-60.776-15.326s-41.595 7.445-60.776 15.326c-9.856 4.05-19.884 8.171-30.747 11.229l.004.012c-11.619 3.269-22.72 4.859-33.936 4.859h-.026c-11.217 0-22.317-1.59-33.936-4.859l.003-.012c-10.862-3.058-20.89-7.179-30.746-11.229-19.181-7.881-37.297-15.326-60.776-15.326-23.478 0-41.595 7.444-60.776 15.326-19.261 7.916-39.179 16.1-64.705 16.1-25.526 0-45.443-8.184-64.705-16.1-19.181-7.882-37.298-15.326-60.775-15.326-23.479 0-41.596 7.445-60.777 15.326-19.262 7.916-39.18 16.1-64.705 16.1s-45.444-8.184-64.705-16.1c-19.181-7.882-37.299-15.326-60.776-15.326-23.478 0-41.595 7.445-60.776 15.326-19.263 7.916-39.181 16.1-64.705 16.1-.329 0-.657-.002-.986-.005-.328.003-.656.005-.985.005-25.525 0-45.443-8.184-64.705-16.1-19.181-7.881-37.298-15.326-60.776-15.326s-41.596 7.444-60.776 15.326c-19.261 7.916-39.179 16.1-64.706 16.1-25.525 0-45.442-8.184-64.705-16.1-19.18-7.882-37.297-15.326-60.775-15.326s-41.595 7.445-60.776 15.326c-19.262 7.916-39.18 16.1-64.705 16.1s-45.444-8.184-64.705-16.1c-19.182-7.882-37.299-15.326-60.776-15.326-23.478 0-41.595 7.445-60.776 15.326-9.856 4.05-19.884 8.171-30.747 11.229l.003.012c-11.619 3.269-22.719 4.859-33.935 4.859h-.026c-11.217 0-22.318-1.59-33.937-4.859l.004-.012c-10.863-3.058-20.89-7.179-30.746-11.229-19.181-7.881-37.298-15.326-60.776-15.326-23.479 0-41.596 7.444-60.776 15.326-19.262 7.916-39.179 16.1-64.705 16.1-25.526 0-45.443-8.184-64.706-16.1-19.18-7.882-37.298-15.326-60.775-15.326-23.478 0-41.595 7.445-60.777 15.326-19.261 7.916-39.18 16.1-64.704 16.1-25.526 0-45.444-8.184-64.705-16.1-19.182-7.882-37.299-15.326-60.776-15.326-23.479 0-41.596 7.445-60.777 15.326-9.361 3.847-18.877 7.757-29.116 10.761l.146.48c-11.619 3.269-22.72 4.859-33.935 4.859-.301 0-.601-.002-.9-.004-.299.002-.599.004-.9.004-11.216 0-22.317-1.59-33.936-4.859l.147-.481c-10.239-3.003-19.755-6.913-29.116-10.76-19.181-7.881-37.298-15.326-60.776-15.326-23.479 0-41.596 7.444-60.776 15.326-19.262 7.916-39.179 16.1-64.705 16.1-25.526 0-45.443-8.184-64.706-16.1-19.18-7.882-37.298-15.326-60.775-15.326-23.478 0-41.595 7.445-60.777 15.326-19.261 7.916-39.18 16.1-64.704 16.1-25.526 0-45.444-8.184-64.705-16.1-19.182-7.882-37.299-15.326-60.777-15.326s-41.595 7.445-60.776 15.326c-9.856 4.05-19.884 8.171-30.746 11.229l.003.012c-11.619 3.269-22.719 4.859-33.936 4.859h-.026c-11.216 0-22.317-1.59-33.936-4.859l.003-.012c-10.862-3.058-20.89-7.179-30.746-11.229-19.18-7.881-37.297-15.326-60.776-15.326-23.478 0-41.595 7.444-60.776 15.326-19.261 7.916-39.179 16.1-64.705 16.1-25.525 0-45.443-8.184-64.705-16.1-19.181-7.882-37.298-15.326-60.775-15.326-23.479 0-41.595 7.445-60.777 15.326-19.262 7.916-39.18 16.1-64.704 16.1-25.526 0-45.444-8.184-64.706-16.1-19.181-7.882-37.299-15.326-60.776-15.326-23.478 0-41.595 7.445-60.776 15.326-19.262 7.916-39.18 16.1-64.705 16.1-.328 0-.657-.002-.985-.005-.329.003-.657.005-.986.005-25.525 0-45.442-8.184-64.705-16.1-19.18-7.881-37.297-15.326-60.776-15.326-23.478 0-41.595 7.444-60.776 15.326-19.261 7.916-39.179 16.1-64.705 16.1-25.526 0-45.443-8.184-64.705-16.1-19.181-7.882-37.298-15.326-60.775-15.326-23.479 0-41.596 7.445-60.777 15.326-19.262 7.916-39.18 16.1-64.705 16.1s-45.444-8.184-64.705-16.1c-19.181-7.882-37.299-15.326-60.776-15.326-23.478 0-41.595 7.445-60.776 15.326-9.856 4.05-19.884 8.171-30.747 11.229l.003.012c-11.619 3.269-22.719 4.859-33.935 4.859h-.026c-11.217 0-22.318-1.59-33.937-4.859l.004-.012c-10.863-3.058-20.89-7.179-30.746-11.229-19.181-7.881-37.298-15.326-60.776-15.326-23.479 0-41.596 7.444-60.776 15.326-19.262 7.916-39.179 16.1-64.705 16.1-25.526 0-45.443-8.184-64.706-16.1-19.18-7.882-37.297-15.326-60.775-15.326s-41.595 7.445-60.776 15.326c-19.262 7.916-39.181 16.1-64.705 16.1-25.525 0-45.444-8.184-64.705-16.1-19.182-7.882-37.299-15.326-60.776-15.326-23.478 0-41.596 7.445-60.776 15.326-19.262 7.916-39.181 16.1-64.705 16.1-11.217 0-22.318-1.59-33.937-4.859l2.81-9.193c10.692 3.008 20.874 4.472 31.127 4.472 23.478 0 41.595-7.445 60.776-15.327 19.262-7.915 39.18-16.099 64.705-16.099 25.524 0 45.443 8.184 64.704 16.099 19.182 7.882 37.299 15.327 60.777 15.327s41.595-7.444 60.776-15.327c19.262-7.915 39.18-16.099 64.705-16.099s45.442 8.184 64.705 16.099c19.18 7.882 37.297 15.327 60.776 15.327 23.479 0 41.596-7.445 60.777-15.327C615.898 8.169 635.815-.015 661.341-.015c25.525 0 45.442 8.184 64.705 16.099 9.864 4.053 19.446 7.991 29.621 10.86l.002-.005c9.833 2.766 19.234 4.226 28.656 4.443l.144.003.296.006.291.005.188.003.409.005.096.001a93.242 93.242 0 0 0 2.12 0l.097-.001.407-.005.191-.003.288-.005.299-.006.139-.003c9.422-.217 18.824-1.676 28.661-4.443l.001.005c10.174-2.869 19.757-6.807 29.62-10.86C866.834 8.169 886.753-.015 912.277-.015s45.443 8.184 64.704 16.099c19.182 7.882 37.299 15.327 60.777 15.327s41.595-7.444 60.776-15.327c19.262-7.915 39.18-16.099 64.706-16.099 25.524 0 45.442 8.184 64.704 16.099 19.18 7.882 37.298 15.327 60.776 15.327 23.479 0 41.596-7.445 60.777-15.327 19.262-7.915 39.179-16.099 64.704-16.099 25.525 0 45.443 8.184 64.705 16.099 10.457 4.297 20.598 8.464 31.464 11.366l.156-.511c10.35 2.912 20.221 4.376 30.142 4.467 9.919-.091 19.79-1.555 30.142-4.467l.156.51c10.866-2.901 21.007-7.068 31.463-11.365 19.263-7.915 39.181-16.099 64.705-16.099 25.525 0 45.443 8.184 64.704 16.099 19.182 7.882 37.299 15.327 60.778 15.327 23.477 0 41.594-7.444 60.775-15.327 19.262-7.915 39.181-16.099 64.706-16.099 25.524 0 45.442 8.184 64.704 16.099 19.181 7.882 37.298 15.327 60.776 15.327 23.479 0 41.597-7.445 60.777-15.327 19.262-7.915 39.179-16.099 64.704-16.099 25.526 0 45.443 8.184 64.705 16.099 9.864 4.053 19.447 7.991 29.622 10.86l.001-.005c9.834 2.766 19.234 4.226 28.656 4.443l.145.003.295.006.292.005.187.003a55.37 55.37 0 0 0 .505.006 93.374 93.374 0 0 0 2.12 0l.097-.001.408-.005.19-.003a27.66 27.66 0 0 0 .587-.011l.14-.003c9.422-.217 18.823-1.676 28.66-4.443l.002.005c10.174-2.869 19.756-6.807 29.619-10.86 19.263-7.915 39.181-16.099 64.705-16.099 25.525 0 45.443 8.184 64.705 16.099 19.181 7.882 37.299 15.327 60.777 15.327 23.477 0 41.594-7.444 60.776-15.327 19.261-7.915 39.18-16.099 64.705-16.099 25.524 0 45.442 8.184 64.704 16.099 19.181 7.882 37.298 15.327 60.777 15.327s41.596-7.445 60.776-15.327c19.262-7.915 39.179-16.099 64.705-16.099 25.525 0 45.442 8.184 64.705 16.099 18.935 7.781 36.834 15.135 59.876 15.323 23.043-.188 40.942-7.542 59.876-15.323 19.263-7.915 39.181-16.099 64.706-16.099 25.524 0 45.442 8.184 64.704 16.099 19.181 7.882 37.299 15.327 60.777 15.327 23.477 0 41.594-7.444 60.776-15.327 19.261-7.915 39.18-16.099 64.705-16.099 25.524 0 45.442 8.184 64.704 16.099 19.181 7.882 37.298 15.327 60.777 15.327s41.596-7.445 60.776-15.327c19.262-7.915 39.179-16.099 64.705-16.099 25.525 0 45.442 8.184 64.705 16.099 9.864 4.053 19.446 7.991 29.621 10.86l.001-.005c9.834 2.766 19.235 4.226 28.656 4.443l.145.003.296.006.291.005.188.003.409.005.096.001a93.242 93.242 0 0 0 2.12 0l.097-.001.407-.005.19-.003.288-.005.3-.006.139-.003c9.422-.217 18.824-1.676 28.66-4.443l.001.005c10.175-2.869 19.757-6.807 29.621-10.86 19.262-7.915 39.181-16.099 64.705-16.099s45.443 8.184 64.704 16.099c19.182 7.882 37.299 15.327 60.777 15.327 23.477 0 41.594-7.444 60.776-15.327 19.261-7.915 39.18-16.099 64.705-16.099s45.442 8.184 64.705 16.099c19.18 7.882 37.297 15.327 60.775 15.327 23.48 0 41.597-7.445 60.778-15.327 19.261-7.915 39.179-16.099 64.704-16.099 25.525 0 45.443 8.184 64.705 16.099 10.457 4.297 20.598 8.464 31.464 11.366l.156-.511c10.35 2.912 20.221 4.376 30.141 4.467 9.92-.091 19.791-1.555 30.143-4.467l.156.51c10.866-2.901 21.006-7.068 31.463-11.365 19.262-7.915 39.181-16.099 64.705-16.099s45.443 8.184 64.704 16.099c19.182 7.882 37.299 15.327 60.777 15.327s41.595-7.444 60.776-15.327c19.262-7.915 39.18-16.099 64.706-16.099 25.524 0 45.442 8.184 64.704 16.099 19.18 7.882 37.297 15.327 60.776 15.327 23.479 0 41.596-7.445 60.777-15.327 19.261-7.915 39.179-16.099 64.704-16.099 25.525 0 45.443 8.184 64.705 16.099 9.864 4.053 19.447 7.991 29.622 10.86l.001-.005c9.833 2.766 19.234 4.226 28.656 4.443l.145.003.295.006a28.24 28.24 0 0 0 .479.008l.409.005.096.001a93.374 93.374 0 0 0 2.12 0l.097-.001.408-.005.19-.003.288-.005.299-.006.14-.003c9.421-.217 18.823-1.676 28.66-4.443l.001.005c10.175-2.869 19.757-6.807 29.62-10.86 19.262-7.915 39.181-16.099 64.705-16.099 25.525 0 45.443 8.184 64.705 16.099 19.181 7.882 37.298 15.327 60.777 15.327 23.477 0 41.594-7.444 60.775-15.327 19.262-7.915 39.181-16.099 64.706-16.099 25.524 0 45.442 8.184 64.704 16.099 19.181 7.882 37.298 15.327 60.776 15.327 23.479 0 41.596-7.445 60.777-15.327 19.261-7.915 39.179-16.099 64.704-16.099 25.526 0 45.443 8.184 64.705 16.099 19.181 7.882 37.298 15.327 60.777 15.327 10.251 0 20.433-1.464 31.128-4.472l2.807 9.193c-11.619 3.269-22.72 4.859-33.935 4.859z"/></svg>

<svg 
 xmlns="http://www.w3.org/2000/svg"
 xmlns:xlink="http://www.w3.org/1999/xlink"
 width="6093px" height="41px">
<path fill-rule="evenodd"  fill="rgb(241, 247, 252)"
 d="M6059.065,40.991 C6033.539,40.991 6013.622,32.807 5994.359,24.891 C5975.179,17.010 5957.062,9.565 5933.583,9.565 C5910.105,9.565 5891.988,17.009 5872.807,24.891 C5853.546,32.807 5833.628,40.991 5808.102,40.991 C5782.577,40.991 5762.659,32.807 5743.397,24.891 C5724.216,17.009 5706.099,9.565 5682.622,9.565 C5659.143,9.565 5641.026,17.010 5621.845,24.891 C5602.583,32.807 5582.665,40.991 5557.141,40.991 C5531.615,40.991 5511.697,32.807 5492.435,24.891 C5473.254,17.009 5455.137,9.565 5431.659,9.565 C5408.181,9.565 5390.064,17.010 5370.883,24.891 C5361.027,28.941 5350.999,33.062 5340.136,36.120 L5340.140,36.132 C5328.521,39.401 5317.420,40.991 5306.204,40.991 C5306.200,40.991 5306.196,40.991 5306.191,40.991 C5306.187,40.991 5306.183,40.991 5306.178,40.991 C5294.961,40.991 5283.861,39.401 5272.242,36.132 L5272.245,36.120 C5261.383,33.062 5251.355,28.941 5241.499,24.891 C5222.318,17.010 5204.202,9.565 5180.723,9.565 C5157.245,9.565 5139.128,17.009 5119.947,24.891 C5100.686,32.807 5080.768,40.991 5055.242,40.991 C5029.716,40.991 5009.799,32.807 4990.537,24.891 C4971.356,17.009 4953.239,9.565 4929.762,9.565 C4906.283,9.565 4888.166,17.010 4868.985,24.891 C4849.723,32.807 4829.805,40.991 4804.280,40.991 C4778.755,40.991 4758.836,32.807 4739.575,24.891 C4720.394,17.009 4702.276,9.565 4678.799,9.565 C4655.321,9.565 4637.204,17.010 4618.023,24.891 C4598.760,32.807 4578.842,40.991 4553.318,40.991 C4552.989,40.991 4552.661,40.989 4552.332,40.986 C4552.004,40.989 4551.676,40.991 4551.347,40.991 C4525.822,40.991 4505.904,32.807 4486.642,24.891 C4467.461,17.010 4449.344,9.565 4425.866,9.565 C4402.388,9.565 4384.270,17.009 4365.090,24.891 C4345.829,32.807 4325.911,40.991 4300.384,40.991 C4274.859,40.991 4254.942,32.807 4235.679,24.891 C4216.499,17.009 4198.382,9.565 4174.904,9.565 C4151.426,9.565 4133.309,17.010 4114.128,24.891 C4094.866,32.807 4074.948,40.991 4049.423,40.991 C4023.898,40.991 4003.979,32.807 3984.718,24.891 C3965.536,17.009 3947.419,9.565 3923.942,9.565 C3900.464,9.565 3882.347,17.010 3863.166,24.891 C3853.310,28.941 3843.282,33.062 3832.419,36.120 L3832.422,36.132 C3820.803,39.401 3809.703,40.991 3798.487,40.991 C3798.482,40.991 3798.478,40.991 3798.474,40.991 C3798.469,40.991 3798.465,40.991 3798.461,40.991 C3787.244,40.991 3776.143,39.401 3764.524,36.132 L3764.528,36.120 C3753.665,33.062 3743.638,28.941 3733.782,24.891 C3714.601,17.010 3696.484,9.565 3673.006,9.565 C3649.527,9.565 3631.410,17.009 3612.230,24.891 C3592.968,32.807 3573.051,40.991 3547.525,40.991 C3521.999,40.991 3502.082,32.807 3482.819,24.891 C3463.639,17.009 3445.521,9.565 3422.044,9.565 C3398.566,9.565 3380.449,17.010 3361.267,24.891 C3342.006,32.807 3322.087,40.991 3296.563,40.991 C3271.037,40.991 3251.119,32.807 3231.858,24.891 C3212.676,17.009 3194.559,9.565 3171.082,9.565 C3147.603,9.565 3129.486,17.010 3110.305,24.891 C3100.944,28.738 3091.428,32.648 3081.189,35.652 L3081.335,36.132 C3069.716,39.401 3058.615,40.991 3047.400,40.991 C3047.099,40.991 3046.799,40.989 3046.500,40.987 C3046.201,40.989 3045.901,40.991 3045.600,40.991 C3034.384,40.991 3023.283,39.401 3011.664,36.132 L3011.811,35.651 C3001.572,32.648 2992.056,28.738 2982.695,24.891 C2963.514,17.010 2945.397,9.565 2921.919,9.565 C2898.440,9.565 2880.323,17.009 2861.143,24.891 C2841.881,32.807 2821.964,40.991 2796.438,40.991 C2770.912,40.991 2750.995,32.807 2731.732,24.891 C2712.552,17.009 2694.434,9.565 2670.957,9.565 C2647.479,9.565 2629.362,17.010 2610.180,24.891 C2590.919,32.807 2571.000,40.991 2545.476,40.991 C2519.950,40.991 2500.032,32.807 2480.771,24.891 C2461.589,17.009 2443.472,9.565 2419.994,9.565 C2396.516,9.565 2378.399,17.010 2359.218,24.891 C2349.362,28.941 2339.334,33.062 2328.472,36.120 L2328.475,36.132 C2316.856,39.401 2305.756,40.991 2294.539,40.991 C2294.535,40.991 2294.531,40.991 2294.526,40.991 C2294.522,40.991 2294.518,40.991 2294.513,40.991 C2283.297,40.991 2272.196,39.401 2260.577,36.132 L2260.580,36.120 C2249.718,33.062 2239.690,28.941 2229.834,24.891 C2210.654,17.010 2192.537,9.565 2169.058,9.565 C2145.580,9.565 2127.463,17.009 2108.282,24.891 C2089.021,32.807 2069.103,40.991 2043.577,40.991 C2018.052,40.991 1998.134,32.807 1978.872,24.891 C1959.691,17.009 1941.574,9.565 1918.097,9.565 C1894.618,9.565 1876.502,17.010 1857.320,24.891 C1838.058,32.807 1818.140,40.991 1792.616,40.991 C1767.090,40.991 1747.172,32.807 1727.910,24.891 C1708.729,17.009 1690.611,9.565 1667.134,9.565 C1643.656,9.565 1625.539,17.010 1606.358,24.891 C1587.096,32.807 1567.178,40.991 1541.653,40.991 C1541.325,40.991 1540.996,40.989 1540.668,40.986 C1540.339,40.989 1540.011,40.991 1539.682,40.991 C1514.157,40.991 1494.240,32.807 1474.977,24.891 C1455.797,17.010 1437.680,9.565 1414.201,9.565 C1390.723,9.565 1372.606,17.009 1353.425,24.891 C1334.164,32.807 1314.246,40.991 1288.720,40.991 C1263.194,40.991 1243.277,32.807 1224.015,24.891 C1204.834,17.009 1186.717,9.565 1163.240,9.565 C1139.761,9.565 1121.644,17.010 1102.463,24.891 C1083.201,32.807 1063.283,40.991 1037.758,40.991 C1012.233,40.991 992.314,32.807 973.053,24.891 C953.872,17.009 935.754,9.565 912.277,9.565 C888.799,9.565 870.682,17.010 851.501,24.891 C841.645,28.941 831.617,33.062 820.754,36.120 L820.757,36.132 C809.138,39.401 798.038,40.991 786.822,40.991 C786.818,40.991 786.813,40.991 786.809,40.991 C786.805,40.991 786.800,40.991 786.796,40.991 C775.579,40.991 764.478,39.401 752.859,36.132 L752.863,36.120 C742.000,33.062 731.973,28.941 722.117,24.891 C702.936,17.010 684.819,9.565 661.341,9.565 C637.862,9.565 619.745,17.009 600.565,24.891 C581.303,32.807 561.386,40.991 535.860,40.991 C510.334,40.991 490.417,32.807 471.154,24.891 C451.974,17.009 433.857,9.565 410.379,9.565 C386.901,9.565 368.784,17.010 349.603,24.891 C330.341,32.807 310.422,40.991 284.898,40.991 C259.373,40.991 239.454,32.807 220.193,24.891 C201.011,17.009 182.894,9.565 159.417,9.565 C135.939,9.565 117.821,17.010 98.641,24.891 C79.379,32.807 59.460,40.991 33.936,40.991 C22.719,40.991 11.618,39.401 -0.001,36.132 L2.809,26.939 C13.501,29.947 23.683,31.411 33.936,31.411 C57.414,31.411 75.531,23.966 94.712,16.084 C113.974,8.169 133.892,-0.015 159.417,-0.015 C184.941,-0.015 204.860,8.169 224.121,16.084 C243.303,23.966 261.420,31.411 284.898,31.411 C308.376,31.411 326.493,23.967 345.674,16.084 C364.936,8.169 384.854,-0.015 410.379,-0.015 C435.904,-0.015 455.821,8.169 475.084,16.084 C494.264,23.966 512.381,31.411 535.860,31.411 C559.339,31.411 577.456,23.966 596.637,16.084 C615.898,8.169 635.815,-0.015 661.341,-0.015 C686.866,-0.015 706.783,8.169 726.046,16.084 C735.910,20.137 745.492,24.075 755.667,26.944 L755.669,26.939 C765.502,29.705 774.903,31.165 784.325,31.382 C784.373,31.383 784.421,31.384 784.469,31.385 C784.568,31.387 784.666,31.389 784.765,31.391 C784.862,31.393 784.959,31.395 785.056,31.396 C785.119,31.397 785.181,31.398 785.244,31.399 C785.380,31.401 785.516,31.403 785.653,31.404 C785.685,31.405 785.717,31.405 785.749,31.405 C786.101,31.409 786.454,31.411 786.809,31.411 C787.163,31.411 787.517,31.409 787.869,31.405 C787.901,31.405 787.934,31.405 787.966,31.404 C788.102,31.403 788.238,31.401 788.373,31.399 C788.437,31.398 788.500,31.397 788.564,31.396 C788.660,31.395 788.756,31.393 788.852,31.391 C788.951,31.389 789.051,31.387 789.151,31.385 C789.197,31.384 789.244,31.383 789.290,31.382 C798.712,31.165 808.114,29.706 817.951,26.939 L817.952,26.944 C828.126,24.075 837.709,20.137 847.572,16.084 C866.834,8.169 886.753,-0.015 912.277,-0.015 C937.801,-0.015 957.720,8.169 976.981,16.084 C996.163,23.966 1014.280,31.411 1037.758,31.411 C1061.236,31.411 1079.353,23.967 1098.534,16.084 C1117.796,8.169 1137.714,-0.015 1163.240,-0.015 C1188.764,-0.015 1208.682,8.169 1227.944,16.084 C1247.124,23.966 1265.242,31.411 1288.720,31.411 C1312.199,31.411 1330.316,23.966 1349.497,16.084 C1368.759,8.169 1388.676,-0.015 1414.201,-0.015 C1439.726,-0.015 1459.644,8.169 1478.906,16.084 C1489.363,20.381 1499.504,24.548 1510.370,27.450 L1510.526,26.939 C1520.876,29.851 1530.747,31.315 1540.668,31.406 C1550.587,31.315 1560.458,29.851 1570.810,26.939 L1570.966,27.449 C1581.832,24.548 1591.973,20.381 1602.429,16.084 C1621.692,8.169 1641.610,-0.015 1667.134,-0.015 C1692.659,-0.015 1712.577,8.169 1731.838,16.084 C1751.020,23.966 1769.137,31.411 1792.616,31.411 C1816.093,31.411 1834.210,23.967 1853.391,16.084 C1872.653,8.169 1892.572,-0.015 1918.097,-0.015 C1943.621,-0.015 1963.539,8.169 1982.801,16.084 C2001.982,23.966 2020.099,31.411 2043.577,31.411 C2067.056,31.411 2085.174,23.966 2104.354,16.084 C2123.616,8.169 2143.533,-0.015 2169.058,-0.015 C2194.584,-0.015 2214.501,8.169 2233.763,16.084 C2243.627,20.137 2253.210,24.075 2263.385,26.944 L2263.386,26.939 C2273.220,29.705 2282.620,31.165 2292.042,31.382 C2292.090,31.383 2292.139,31.384 2292.187,31.385 C2292.285,31.387 2292.384,31.389 2292.482,31.391 C2292.579,31.393 2292.676,31.395 2292.774,31.396 C2292.836,31.397 2292.899,31.398 2292.961,31.399 C2293.097,31.401 2293.234,31.403 2293.371,31.404 C2293.402,31.405 2293.434,31.405 2293.466,31.405 C2293.818,31.409 2294.172,31.411 2294.526,31.411 C2294.881,31.411 2295.234,31.409 2295.586,31.405 C2295.619,31.405 2295.651,31.405 2295.683,31.404 C2295.819,31.403 2295.955,31.401 2296.091,31.399 C2296.154,31.398 2296.218,31.397 2296.281,31.396 C2296.377,31.395 2296.473,31.393 2296.569,31.391 C2296.669,31.389 2296.769,31.387 2296.868,31.385 C2296.915,31.384 2296.961,31.383 2297.008,31.382 C2306.430,31.165 2315.831,29.706 2325.668,26.939 L2325.670,26.944 C2335.844,24.075 2345.426,20.137 2355.289,16.084 C2374.552,8.169 2394.470,-0.015 2419.994,-0.015 C2445.519,-0.015 2465.437,8.169 2484.699,16.084 C2503.880,23.966 2521.998,31.411 2545.476,31.411 C2568.953,31.411 2587.070,23.967 2606.252,16.084 C2625.513,8.169 2645.432,-0.015 2670.957,-0.015 C2696.481,-0.015 2716.399,8.169 2735.661,16.084 C2754.842,23.966 2772.959,31.411 2796.438,31.411 C2819.917,31.411 2838.034,23.966 2857.214,16.084 C2876.476,8.169 2896.393,-0.015 2921.919,-0.015 C2947.444,-0.015 2967.361,8.169 2986.624,16.084 C3005.559,23.865 3023.458,31.219 3046.500,31.407 C3069.543,31.219 3087.442,23.865 3106.376,16.084 C3125.639,8.169 3145.557,-0.015 3171.082,-0.015 C3196.606,-0.015 3216.524,8.169 3235.786,16.084 C3254.967,23.966 3273.085,31.411 3296.563,31.411 C3320.040,31.411 3338.157,23.967 3357.339,16.084 C3376.600,8.169 3396.519,-0.015 3422.044,-0.015 C3447.568,-0.015 3467.486,8.169 3486.748,16.084 C3505.929,23.966 3524.046,31.411 3547.525,31.411 C3571.004,31.411 3589.121,23.966 3608.301,16.084 C3627.563,8.169 3647.480,-0.015 3673.006,-0.015 C3698.531,-0.015 3718.448,8.169 3737.711,16.084 C3747.575,20.137 3757.157,24.075 3767.332,26.944 L3767.333,26.939 C3777.167,29.705 3786.568,31.165 3795.989,31.382 C3796.038,31.383 3796.086,31.384 3796.134,31.385 C3796.233,31.387 3796.331,31.389 3796.430,31.391 C3796.527,31.393 3796.624,31.395 3796.721,31.396 C3796.783,31.397 3796.846,31.398 3796.909,31.399 C3797.045,31.401 3797.181,31.403 3797.318,31.404 C3797.350,31.405 3797.382,31.405 3797.414,31.405 C3797.766,31.409 3798.119,31.411 3798.474,31.411 C3798.828,31.411 3799.182,31.409 3799.534,31.405 C3799.566,31.405 3799.599,31.405 3799.631,31.404 C3799.767,31.403 3799.903,31.401 3800.038,31.399 C3800.102,31.398 3800.165,31.397 3800.228,31.396 C3800.325,31.395 3800.420,31.393 3800.516,31.391 C3800.616,31.389 3800.716,31.387 3800.816,31.385 C3800.862,31.384 3800.909,31.383 3800.955,31.382 C3810.377,31.165 3819.779,29.706 3829.615,26.939 L3829.616,26.944 C3839.791,24.075 3849.373,20.137 3859.237,16.084 C3878.499,8.169 3898.418,-0.015 3923.942,-0.015 C3949.466,-0.015 3969.385,8.169 3988.646,16.084 C4007.828,23.966 4025.945,31.411 4049.423,31.411 C4072.900,31.411 4091.017,23.967 4110.199,16.084 C4129.460,8.169 4149.379,-0.015 4174.904,-0.015 C4200.429,-0.015 4220.346,8.169 4239.609,16.084 C4258.789,23.966 4276.906,31.411 4300.384,31.411 C4323.864,31.411 4341.981,23.966 4361.162,16.084 C4380.423,8.169 4400.341,-0.015 4425.866,-0.015 C4451.391,-0.015 4471.309,8.169 4490.571,16.084 C4501.028,20.381 4511.169,24.548 4522.035,27.450 L4522.191,26.939 C4532.541,29.851 4542.412,31.315 4552.332,31.406 C4562.252,31.315 4572.123,29.851 4582.475,26.939 L4582.631,27.449 C4593.497,24.548 4603.637,20.381 4614.094,16.084 C4633.356,8.169 4653.275,-0.015 4678.799,-0.015 C4704.323,-0.015 4724.242,8.169 4743.503,16.084 C4762.685,23.966 4780.802,31.411 4804.280,31.411 C4827.758,31.411 4845.875,23.967 4865.056,16.084 C4884.318,8.169 4904.236,-0.015 4929.762,-0.015 C4955.286,-0.015 4975.204,8.169 4994.466,16.084 C5013.646,23.966 5031.763,31.411 5055.242,31.411 C5078.721,31.411 5096.838,23.966 5116.019,16.084 C5135.280,8.169 5155.198,-0.015 5180.723,-0.015 C5206.248,-0.015 5226.166,8.169 5245.428,16.084 C5255.292,20.137 5264.875,24.075 5275.050,26.944 L5275.051,26.939 C5284.884,29.705 5294.285,31.165 5303.707,31.382 C5303.755,31.383 5303.803,31.384 5303.852,31.385 C5303.950,31.387 5304.049,31.389 5304.147,31.391 C5304.244,31.393 5304.341,31.395 5304.438,31.396 C5304.501,31.397 5304.564,31.398 5304.626,31.399 C5304.762,31.401 5304.899,31.403 5305.035,31.404 C5305.067,31.405 5305.099,31.405 5305.131,31.405 C5305.483,31.409 5305.837,31.411 5306.191,31.411 C5306.546,31.411 5306.899,31.409 5307.251,31.405 C5307.283,31.405 5307.316,31.405 5307.348,31.404 C5307.484,31.403 5307.620,31.401 5307.756,31.399 C5307.819,31.398 5307.882,31.397 5307.946,31.396 C5308.042,31.395 5308.138,31.393 5308.234,31.391 C5308.334,31.389 5308.433,31.387 5308.533,31.385 C5308.580,31.384 5308.626,31.383 5308.673,31.382 C5318.094,31.165 5327.496,29.706 5337.333,26.939 L5337.334,26.944 C5347.509,24.075 5357.091,20.137 5366.954,16.084 C5386.216,8.169 5406.135,-0.015 5431.659,-0.015 C5457.184,-0.015 5477.102,8.169 5496.364,16.084 C5515.545,23.966 5533.662,31.411 5557.141,31.411 C5580.618,31.411 5598.735,23.967 5617.916,16.084 C5637.178,8.169 5657.097,-0.015 5682.622,-0.015 C5708.146,-0.015 5728.064,8.169 5747.326,16.084 C5766.507,23.966 5784.624,31.411 5808.102,31.411 C5831.581,31.411 5849.698,23.966 5868.879,16.084 C5888.140,8.169 5908.058,-0.015 5933.583,-0.015 C5959.109,-0.015 5979.026,8.169 5998.288,16.084 C6017.469,23.966 6035.586,31.411 6059.065,31.411 C6069.316,31.411 6079.498,29.947 6090.193,26.939 L6093.000,36.132 C6081.381,39.401 6070.280,40.991 6059.065,40.991 Z"/>
</svg>
